X:39
T: Melodia instrumentalna
N: K0035t
O: od Nowego Dworu
N: tu: podany tylko zapis gornych wariantow melodii
R: taneczna]
M: 3/4
L: 1/16
K: C
c4e2f2e2c2 | d2f2e2g2e2c2 | f4e2f2e2c2 | d2f2e2g2e2c2 |
f2zde2g2e2c2 | f2zde2g2e2c2 | _B2zde2f2e2c2 | d2g2e4c4 |
_B2zde2f2e2c2 | d2g2e4c2e2 | d2f2e2g2e2c2 | d2g2e4c4 |
d2f2e4c2e2 | d2c2B4A4 | G2B2c4e2c2 | B2A2G4D4 |
G2B2c4e2c2 | B2A2G4D4 | d2B2c4e2c2 | B2A2G4D4 |
G2B2c4e2c2 | B2A2G4D4 | d2B2c4e2c2 | B2A2G4D4

@@@ Tune index: 3183
